svg/icon/agi.svg

<svg height="32" viewBox="0 0 32 32" width="32" xmlns="http://www.w3.org/2000/svg" xmlns:xlink="http://www.w3.org/1999/xlink"><defs><linearGradient id="a" x1="50%" x2="50%" y1="0%" y2="100%"><stop offset="0" stop-color="#fff" stop-opacity=".5"/><stop offset="1" stop-opacity=".5"/></linearGradient><circle id="b" cx="16" cy="15" r="15"/><filter id="c" height="111.7%" width="111.7%" x="-5.8%" y="-4.2%"><feOffset dy=".5" in="SourceAlpha" result="shadowOffsetOuter1"/><feGaussianBlur in="shadowOffsetOuter1" result="shadowBlurOuter1" stdDeviation=".5"/><feComposite in="shadowBlurOuter1" in2="SourceAlpha" operator="out" result="shadowBlurOuter1"/><feColorMatrix in="shadowBlurOuter1" values="0 0 0 0 0   0 0 0 0 0   0 0 0 0 0  0 0 0 0.199473505 0"/></filter><filter id="d" height="117.5%" width="135%" x="-17.5%" y="-6.2%"><feOffset dy=".5" in="SourceAlpha" result="shadowOffsetOuter1"/><feGaussianBlur in="shadowOffsetOuter1" result="shadowBlurOuter1" stdDeviation=".5"/><feColorMatrix in="shadowBlurOuter1" result="shadowMatrixOuter1" values="0 0 0 0 0   0 0 0 0 0   0 0 0 0 0  0 0 0 0.204257246 0"/><feMerge><feMergeNode in="shadowMatrixOuter1"/><feMergeNode in="SourceGraphic"/></feMerge></filter></defs><g fill="none" fill-rule="nonzero"><g><use fill="#000" filter="url(#c)" xlink:href="#b"/><use fill="#6916ff" fill-rule="evenodd" xlink:href="#b"/><use fill="url(#a)" fill-rule="evenodd" xlink:href="#b"/><circle cx="16" cy="15" r="14.5" stroke="#000" stroke-opacity=".097"/></g><g fill="#fff" filter="url(#d)" transform="translate(11 5)"><path d="m6.14375.42424242c-.11625773-.08494714-.15082324-.23964595-.08125-.36363636.09458194-.06128021.21791806-.06128021.3125 0 .70834226.29515799 1.34655108.7283664 1.875 1.27272727.30331435.28101863.55671958.60865367.75.96969697.20401349.36756377.3714371.7531454.5 1.15151515.12347004.41367331.18658307.84207692.1875 1.27272728-.0625.42424242-.125 2.48484848-1.3125 3.45454545-.31316265.18799977-.722994.10851733-.9375-.18181818-.17459557-.20630215-.19947371-.49579326-.0625-.72727273 1.02993235-1.60402005 1.07783184-3.62450767.125-5.27272727-.39950159-.56578979-.85363285-1.09342169-1.35625-1.57575758zm-1.84375 18.58181818c.125.1212121.125.2424242.0625.3030303s-.1875.1212121-.25.0606061c-.70834226-.295158-1.34655108-.7283664-1.875-1.2727273-.30331435-.2810186-.55671958-.6086537-.75-.969697-.20401349-.3675637-.3714371-.7531454-.5-1.1515151-.12347004-.4136733-.18658307-.8420769-.1875-1.2727273.0625-.4242424.125-2.4848485 1.3125-3.4545455.31316265-.1879997.722994-.1085173.9375.1818182.18818472.2080839.18818472.5191889 0 .7272728-1.02993235 1.60402-1.07783184 3.6245076-.125 5.2727272.40543033.5665952.86586374 1.0942545 1.375 1.5757576z" fill-opacity=".5"/><path d="m9.69375 14.0060606c-.08778674-1.1575444-.5467073-2.2594835-1.3125-3.1515151-.76783752-.7725451-1.65308658-1.42658191-2.625-1.93939398-.84672722-.46845741-1.64244042-1.01873052-2.375-1.64242425-.60808279-.5742473-1.02215792-1.31390304-1.1875-2.12121212-.14904259-.83755152-.04260238-1.69907879.30625-2.47878788.41409396-.86020187 1.01286473-1.62472747 1.75625-2.24242424.08521924-.07781673.11029911-.19941607.0625-.3030303-.03439401-.06441677-.09807546-.10935572-.17186316-.12128101-.07378771-.01192528-.14905717.01055695-.20313684.06067495-1.00298011.44071056-1.85050858 1.1571915-2.4375 2.06060606-.66705658.96284119-.97771999 2.11656217-.88125 3.27272727.04931462.58502448.19710396 1.15826798.4375 1.6969697.25909178.5291629.59592831 1.01910694 1 1.45454545.79072214.75671914 1.69724426 1.39045412 2.6875 1.87878785.84836614.4400009 1.64473731.9683747 2.375 1.5757576.64592685.5708698 1.06594719 1.3425819 1.1875 2.1818182.17604265.8791298.06687083 1.7895566-.3125 2.6060606-.42112403.8539637-1.04170642 1.600997-1.8125 2.1818182-.05120882.0309509-.08695869.0810392-.09879266.1384159-.01183396.0573768.00129918.1169455.03629266.1646144.03439401.0644167.09807546.1093557.17186316.121281.07378771.0119253.14905717-.010557.20313684-.060675.93404238-.5406928 1.74264954-1.2628938 2.375-2.1212121.6192161-.9586295.90610221-2.0841415.81875-3.2121212z"/></g></g></svg>

<svg xmlns="http://www.w3.org/2000/svg" xmlns:xlink="http://www.w3.org/1999/xlink" width="32" height="32" viewBox="0 0 32 32">
  <defs>
    <linearGradient id="agi-c" x1="50%" x2="50%" y1="0%" y2="100%">
      <stop offset="0%" stop-color="#FFF" stop-opacity=".5"/>
      <stop offset="100%" stop-opacity=".5"/>
    </linearGradient>
    <circle id="agi-b" cx="16" cy="15" r="15"/>
    <filter id="agi-a" width="111.7%" height="111.7%" x="-5.8%" y="-4.2%" filterUnits="objectBoundingBox">
      <feOffset dy=".5" in="SourceAlpha" result="shadowOffsetOuter1"/>
      <feGaussianBlur in="shadowOffsetOuter1" result="shadowBlurOuter1" stdDeviation=".5"/>
      <feComposite in="shadowBlurOuter1" in2="SourceAlpha" operator="out" result="shadowBlurOuter1"/>
      <feColorMatrix in="shadowBlurOuter1" values="0 0 0 0 0   0 0 0 0 0   0 0 0 0 0  0 0 0 0.199473505 0"/>
    </filter>
    <filter id="agi-d" width="135%" height="117.5%" x="-17.5%" y="-6.2%" filterUnits="objectBoundingBox">
      <feOffset dy=".5" in="SourceAlpha" result="shadowOffsetOuter1"/>
      <feGaussianBlur in="shadowOffsetOuter1" result="shadowBlurOuter1" stdDeviation=".5"/>
      <feColorMatrix in="shadowBlurOuter1" result="shadowMatrixOuter1" values="0 0 0 0 0   0 0 0 0 0   0 0 0 0 0  0 0 0 0.204257246 0"/>
      <feMerge>
        <feMergeNode in="shadowMatrixOuter1"/>
        <feMergeNode in="SourceGraphic"/>
      </feMerge>
    </filter>
  </defs>
  <g fill="none" fill-rule="evenodd">
    <g fill-rule="nonzero">
      <use fill="#000" filter="url(#agi-a)" xlink:href="#agi-b"/>
      <use fill="#6916FF" fill-rule="evenodd" xlink:href="#agi-b"/>
      <use fill="url(#agi-c)" fill-rule="evenodd" style="mix-blend-mode:soft-light" xlink:href="#agi-b"/>
      <circle cx="16" cy="15" r="14.5" stroke="#000" stroke-opacity=".097"/>
    </g>
    <g fill="#FFF" fill-rule="nonzero" filter="url(#agi-d)" transform="translate(11 5)">
      <path fill-opacity=".5" d="M6.14375,0.424242424 C6.02749227,0.339295284 5.99292676,0.184596474 6.0625,0.0606060606 C6.15708194,-0.000674150564 6.28041806,-0.000674150564 6.375,0.0606060606 C7.08334226,0.355764047 7.72155108,0.788972459 8.25,1.33333333 C8.55331435,1.61435196 8.80671958,1.941987 9,2.3030303 C9.20401349,2.67059407 9.3714371,3.0561757 9.5,3.45454545 C9.62347004,3.86821876 9.68658307,4.29662237 9.6875,4.72727273 C9.625,5.15151515 9.5625,7.21212121 8.375,8.18181818 C8.06183735,8.36981795 7.652006,8.29033551 7.4375,8 C7.26290443,7.79369785 7.23802629,7.50420674 7.375,7.27272727 C8.40493235,5.66870722 8.45283184,3.6482196 7.5,2 C7.10049841,1.43421021 6.64636715,0.906578314 6.14375,0.424242424 Z M4.3,19.0060606 C4.425,19.1272727 4.425,19.2484848 4.3625,19.3090909 C4.3,19.369697 4.175,19.430303 4.1125,19.369697 C3.40415774,19.074539 2.76594892,18.6413306 2.2375,18.0969697 C1.93418565,17.8159511 1.68078042,17.488316 1.4875,17.1272727 C1.28348651,16.759709 1.1160629,16.3741273 0.9875,15.9757576 C0.86402996,15.5620843 0.800916929,15.1336807 0.8,14.7030303 C0.8625,14.2787879 0.925,12.2181818 2.1125,11.2484848 C2.42566265,11.0604851 2.835494,11.1399675 3.05,11.430303 C3.23818472,11.6383869 3.23818472,11.9494919 3.05,12.1575758 C2.02006765,13.7615958 1.97216816,15.7820834 2.925,17.430303 C3.33043033,17.9968982 3.79086374,18.5245575 4.3,19.0060606 Z"/>
      <path d="M9.69375,14.0060606 C9.60596326,12.8485162 9.1470427,11.7465771 8.38125,10.8545455 C7.61341248,10.0820004 6.72816342,9.42796359 5.75625,8.91515152 C4.90952278,8.44669411 4.11380958,7.896421 3.38125,7.27272727 C2.77316721,6.69847997 2.35909208,5.95882423 2.19375,5.15151515 C2.04470741,4.31396363 2.15114762,3.45243636 2.5,2.67272727 C2.91409396,1.8125254 3.51286473,1.0479998 4.25625,0.43030303 C4.34146924,0.3524863 4.36654911,0.230886956 4.31875,0.127272727 C4.28435599,0.0628559591 4.22067454,0.0179170106 4.14688684,0.00599172483 C4.07309913,-0.00593356093 3.99782967,0.0165486748 3.94375,0.0666666667 C2.94076989,0.507377228 2.09324142,1.22385817 1.50625,2.12727273 C0.839193415,3.09011392 0.528530006,4.2438349 0.625,5.4 C0.67431462,5.98502448 0.822103959,6.55826798 1.0625,7.0969697 C1.32159178,7.6261326 1.65842831,8.11607664 2.0625,8.55151515 C2.85322214,9.30823429 3.75974426,9.94196927 4.75,10.430303 C5.59836614,10.8703039 6.39473731,11.3986777 7.125,12.0060606 C7.77092685,12.5769304 8.19094719,13.3486425 8.3125,14.1878788 C8.48854265,15.0670086 8.37937083,15.9774354 8,16.7939394 C7.57887597,17.6479031 6.95829358,18.3949364 6.1875,18.9757576 C6.13629118,19.0067085 6.10054131,19.0567968 6.08870734,19.1141735 C6.07687338,19.1715503 6.09000652,19.231119 6.125,19.2787879 C6.15939401,19.3432046 6.22307546,19.3881436 6.29686316,19.4000689 C6.37065087,19.4119942 6.44592033,19.3895119 6.5,19.3393939 C7.43404238,18.7987011 8.24264954,18.0765001 8.875,17.2181818 C9.4942161,16.2595523 9.78110221,15.1340403 9.69375,14.0060606 Z"/>
    </g>
  </g>
</svg>
